svgs/sharp-thin/battery-half.svg

<svg xmlns="http://www.w3.org/2000/svg" viewBox="0 0 576 512"><!--! Font Awesome Pro 6.6.0 by @fontawesome - https://fontawesome.com License - https://fontawesome.com/license (Commercial License) Copyright 2024 Fonticons, Inc. --><path d="M512 112l0 80 0 16 0 96 0 16 0 80L16 400l0-288 496 0zm16 288l0-80 32 0 16 0 0-16 0-96 0-16-16 0-32 0 0-80 0-16-16 0L16 96 0 96l0 16L0 400l0 16 16 0 496 0 16 0 0-16zm0-96l0-96 32 0 0 96-32 0zM80 176l192 0 0 160L80 336l0-160zM64 160l0 16 0 160 0 16 16 0 192 0 16 0 0-16 0-160 0-16-16 0L80 160l-16 0z"/></svg>

<svg xmlns="http://www.w3.org/2000/svg" viewBox="0 0 576 512"><!--! Font Awesome Pro 6.5.2 by @fontawesome - https://fontawesome.com License - https://fontawesome.com/license (Commercial License) Copyright 2024 Fonticons, Inc. --><path d="M512 112v80 16 96 16 80H16V112H512zm16 288V320h32 16V304 208 192H560 528V112 96H512 16 0v16V400v16H16 512h16V400zm0-96V208h32v96H528zM80 176H272V336H80V176zM64 160v16V336v16H80 272h16V336 176 160H272 80 64z"/></svg>
